X: 1
T: the Holly and the Ivy
Z: John Chambers <jc:trillian.mit.edu>
M: 3/4
L: 1/8
K: G
"G"G2 \
|: "G"GG G2 "C"e2 | "G"d2 B3 G | GG G2 "C"e2 | "D7"d4 dc \
| "G"BA G2 B2 | "C"EE "G"D2 "Em"GA | "C"Bc "G"B2 "D7"A2 | "G"G2 :|
